X: 3052
T: DUNIQUAICH
C: Carl Volti
Q:"Reel."
R: Reel.
%R:reel
B: James Kerr "Merry Melodies" v.3 p.8 #52
Z: 2016 John Chambers <jc:trillian.mit.edu>
M: C
L: 1/8
K: G
|:\
v(Bd)dg e2ce | cBAG  FAAc |\
 (Bd)dg e2ce | dBAG (DG)G2 ::\
   Bdgd bgdB | cBAG  FAdc |\
[1 Bdgd bgdB | cAdc (BG)G2 :|\
[2 BGcA dBec | BgAf  g2d2 |]

%%sep 1 1 500
%%sep 1 1 500

